haltroy.svg

<?xml version="1.0" encoding="UTF-8" standalone="no"?>
<svg
   version="1.1"
   width="713.12488"
   height="823"
   style="clip-rule:evenodd;fill-rule:evenodd;image-rendering:optimizeQuality;shape-rendering:geometricPrecision;text-rendering:geometricPrecision"
   id="svg6"
   sodipodi:docname="haltroy.svg"
   inkscape:version="1.3.2 (091e20ef0f, 2023-11-25, custom)"
   inkscape:export-filename="haltroy.png"
   inkscape:export-xdpi="96"
   inkscape:export-ydpi="96"
   xmlns:inkscape="http://www.inkscape.org/namespaces/inkscape"
   xmlns:sodipodi="http://sodipodi.sourceforge.net/DTD/sodipodi-0.dtd"
   xmlns="http://www.w3.org/2000/svg"
   xmlns:svg="http://www.w3.org/2000/svg">
  <defs
     id="defs6" />
  <sodipodi:namedview
     id="namedview6"
     pagecolor="#505050"
     bordercolor="#eeeeee"
     borderopacity="1"
     inkscape:showpageshadow="0"
     inkscape:pageopacity="0"
     inkscape:pagecheckerboard="0"
     inkscape:deskcolor="#505050"
     inkscape:zoom="0.67565217"
     inkscape:cx="338.93179"
     inkscape:cy="412.19434"
     inkscape:window-width="1920"
     inkscape:window-height="1042"
     inkscape:window-x="0"
     inkscape:window-y="0"
     inkscape:window-maximized="1"
     inkscape:current-layer="g17"
     inkscape:export-bgcolor="#ffffff00" />
  <g
     id="g17"
     style="fill:#06768d;fill-opacity:1"
     transform="translate(-236.37514,-162.5)">
    <g
       id="g19"
       style="fill:#00b2ba;fill-opacity:1">
      <g
         id="g1"
         style="fill:#00b2ba;fill-opacity:1">
        <path
           style="opacity:0.99;fill:#00b2ba;fill-opacity:1"
           fill="#00ffc8"
           d="m 236.5,162.5 c 44.938,25.138 89.605,50.804 134,77 -5.574,8.887 -9.074,18.554 -10.5,29 -0.167,25.34 -0.667,50.673 -1.5,76 -8,-4.667 -16,-9.333 -24,-14 -1.167,165.999 -1.333,331.999 -0.5,498 8.418,-5.126 16.918,-10.126 25.5,-15 1.167,33.662 1.333,67.328 0.5,101 -40.588,24.045 -81.421,47.712 -122.5,71 -1,-274.333 -1.333,-548.666 -1,-823 z"
           id="path1" />
      </g>
      <g
         id="g4"
         style="fill:#00b2ba;fill-opacity:1">
        <path
           style="opacity:0.991;fill:#00b2ba;fill-opacity:1"
           fill="#00ffc8"
           d="m 516.5,381.5 c 21.77,33.651 52.103,45.151 91,34.5 11.825,-4.564 21.825,-11.564 30,-21 1,-0.667 2,-0.667 3,0 103.363,59.343 206.363,119.177 309,179.5 -42.537,25.033 -85.204,49.866 -128,74.5 -1,0.667 -2,0.667 -3,0 -13.893,-24.906 -31.226,-47.24 -52,-67 1.894,-1.079 2.227,-2.413 1,-4 C 683.742,530.566 600.242,482.733 517,434.5 c -0.5,-17.664 -0.667,-35.33 -0.5,-53 z"
           id="path4" />
      </g>
      <g
         id="g5"
         style="fill:#00b2ba;fill-opacity:1">
        <path
           style="opacity:0.989;fill:#00b2ba;fill-opacity:1"
           fill="#00ffc8"
           d="m 608.5,670.5 c 26.56,2.096 47.726,13.763 63.5,35 4.744,7.463 7.744,15.463 9,24 -56.248,32.207 -112.415,64.54 -168.5,97 -0.833,-26.994 -1.333,-53.994 -1.5,-81 -0.457,-5.327 -1.624,-10.494 -3.5,-15.5 0.772,-1.221 1.772,-2.221 3,-3 32.893,-18.608 65.559,-37.441 98,-56.5 z"
           id="path5" />
      </g>
    </g>
    <g
       id="g18"
       style="fill:#00c388;fill-opacity:1">
      <g
         id="g2"
         style="fill:#00c388;fill-opacity:1">
        <path
           style="opacity:0.995;fill:#00c388;fill-opacity:1"
           fill="#00ffc8"
           d="m 436.5,207.5 c 31.123,1.282 50.957,16.949 59.5,47 0.912,4.295 1.579,8.628 2,13 0.333,64.667 0.667,129.333 1,194 6.626,22.918 19.126,41.752 37.5,56.5 10.745,7.806 22.745,12.472 36,14 29.948,0.355 59.615,3.355 89,9 73.126,19.793 122.626,65.293 148.5,136.5 6.085,21.929 9.752,44.262 11,67 1.927,59.997 1.927,119.997 0,180 -6.83,33.16 -27.164,51.16 -61,54 -25.308,-1.638 -43.308,-13.971 -54,-37 -4.492,-12.608 -6.325,-25.608 -5.5,-39 1.019,-32.333 2.019,-64.666 3,-97 0.318,-31.045 -2.849,-61.712 -9.5,-92 -13.665,-34.764 -39.165,-53.931 -76.5,-57.5 -36.271,0.009 -71.604,-5.657 -106,-17 -31.824,-12.164 -58.657,-31.33 -80.5,-57.5 -33.156,-38.005 -51.156,-82.338 -54,-133 0.479,-36.825 0.979,-73.658 1.5,-110.5 -0.084,-24.86 -0.584,-49.693 -1.5,-74.5 5.286,-34.212 25.12,-52.878 59.5,-56 z"
           id="path2" />
      </g>
      <g
         id="g3"
         style="fill:#00c388;fill-opacity:1">
        <path
           style="opacity:0.989;fill:#00c388;fill-opacity:1"
           fill="#00ffc8"
           d="m 573.5,283.5 c 32.997,-1.833 55.83,12.5 68.5,43 7.946,38.281 -6.22,64.448 -42.5,78.5 -43.181,7.155 -69.348,-10.679 -78.5,-53.5 -0.676,-36.812 16.824,-59.478 52.5,-68 z"
           id="path3" />
      </g>
      <g
         id="g6"
         style="fill:#00c388;fill-opacity:1">
        <path
           style="opacity:0.995;fill:#00c388;fill-opacity:1"
           fill="#00ffc7"
           d="m 430.5,693.5 c 31.725,-2.221 54.225,11.112 67.5,40 3.252,7.672 4.918,15.672 5,24 0.667,53.333 0.667,106.667 0,160 -1.29,24.755 -12.457,43.588 -33.5,56.5 -26.921,12.93 -51.421,9.43 -73.5,-10.5 -9.507,-11.349 -15.507,-24.349 -18,-39 -0.973,-61.027 -0.64,-122.027 1,-183 8.315,-25.481 25.482,-41.481 51.5,-48 z"
           id="path6" />
      </g>
    </g>
  </g>
</svg>

<?xml version="1.0" encoding="UTF-8" standalone="no"?>
<svg
   version="1.1"
   width="1150px"
   height="1150px"
   style="shape-rendering:geometricPrecision; text-rendering:geometricPrecision; image-rendering:optimizeQuality; fill-rule:evenodd; clip-rule:evenodd"
   id="svg6"
   sodipodi:docname="haltroy.svg"
   inkscape:version="1.3 (0e150ed6c4, 2023-07-21)"
   inkscape:export-filename="../../../../../home/haltroy/Masaüstü/haltroy.png"
   inkscape:export-xdpi="96"
   inkscape:export-ydpi="96"
   xmlns:inkscape="http://www.inkscape.org/namespaces/inkscape"
   xmlns:sodipodi="http://sodipodi.sourceforge.net/DTD/sodipodi-0.dtd"
   xmlns="http://www.w3.org/2000/svg"
   xmlns:svg="http://www.w3.org/2000/svg">
  <defs
     id="defs6" />
  <sodipodi:namedview
     id="namedview6"
     pagecolor="#505050"
     bordercolor="#eeeeee"
     borderopacity="1"
     inkscape:showpageshadow="0"
     inkscape:pageopacity="0"
     inkscape:pagecheckerboard="0"
     inkscape:deskcolor="#505050"
     inkscape:zoom="0.67565217"
     inkscape:cx="573.51995"
     inkscape:cy="574.25998"
     inkscape:window-width="1920"
     inkscape:window-height="1013"
     inkscape:window-x="0"
     inkscape:window-y="0"
     inkscape:window-maximized="1"
     inkscape:current-layer="svg6"
     inkscape:export-bgcolor="#ffffff00" />
  <g
     id="g1"
     style="fill:#06768d;fill-opacity:1">
    <path
       style="opacity:0.99;fill:#06768d;fill-opacity:1"
       fill="#00ffc8"
       d="M 236.5,162.5 C 281.438,187.638 326.105,213.304 370.5,239.5C 364.926,248.387 361.426,258.054 360,268.5C 359.833,293.84 359.333,319.173 358.5,344.5C 350.5,339.833 342.5,335.167 334.5,330.5C 333.333,496.499 333.167,662.499 334,828.5C 342.418,823.374 350.918,818.374 359.5,813.5C 360.667,847.162 360.833,880.828 360,914.5C 319.412,938.545 278.579,962.212 237.5,985.5C 236.5,711.167 236.167,436.834 236.5,162.5 Z"
       id="path1" />
  </g>
  <g
     id="g2"
     style="fill:#06768d;fill-opacity:1">
    <path
       style="opacity:0.995;fill:#06768d;fill-opacity:1"
       fill="#00ffc8"
       d="M 436.5,207.5 C 467.623,208.782 487.457,224.449 496,254.5C 496.912,258.795 497.579,263.128 498,267.5C 498.333,332.167 498.667,396.833 499,461.5C 505.626,484.418 518.126,503.252 536.5,518C 547.245,525.806 559.245,530.472 572.5,532C 602.448,532.355 632.115,535.355 661.5,541C 734.626,560.793 784.126,606.293 810,677.5C 816.085,699.429 819.752,721.762 821,744.5C 822.927,804.497 822.927,864.497 821,924.5C 814.17,957.66 793.836,975.66 760,978.5C 734.692,976.862 716.692,964.529 706,941.5C 701.508,928.892 699.675,915.892 700.5,902.5C 701.519,870.167 702.519,837.834 703.5,805.5C 703.818,774.455 700.651,743.788 694,713.5C 680.335,678.736 654.835,659.569 617.5,656C 581.229,656.009 545.896,650.343 511.5,639C 479.676,626.836 452.843,607.67 431,581.5C 397.844,543.495 379.844,499.162 377,448.5C 377.479,411.675 377.979,374.842 378.5,338C 378.416,313.14 377.916,288.307 377,263.5C 382.286,229.288 402.12,210.622 436.5,207.5 Z"
       id="path2" />
  </g>
  <g
     id="g3"
     style="fill:#06768d;fill-opacity:1">
    <path
       style="opacity:0.989;fill:#06768d;fill-opacity:1"
       fill="#00ffc8"
       d="M 573.5,283.5 C 606.497,281.667 629.33,296 642,326.5C 649.946,364.781 635.78,390.948 599.5,405C 556.319,412.155 530.152,394.321 521,351.5C 520.324,314.688 537.824,292.022 573.5,283.5 Z"
       id="path3" />
  </g>
  <g
     id="g4"
     style="fill:#06768d;fill-opacity:1">
    <path
       style="opacity:0.991;fill:#06768d;fill-opacity:1"
       fill="#00ffc8"
       d="M 516.5,381.5 C 538.27,415.151 568.603,426.651 607.5,416C 619.325,411.436 629.325,404.436 637.5,395C 638.5,394.333 639.5,394.333 640.5,395C 743.863,454.343 846.863,514.177 949.5,574.5C 906.963,599.533 864.296,624.366 821.5,649C 820.5,649.667 819.5,649.667 818.5,649C 804.607,624.094 787.274,601.76 766.5,582C 768.394,580.921 768.727,579.587 767.5,578C 683.742,530.566 600.242,482.733 517,434.5C 516.5,416.836 516.333,399.17 516.5,381.5 Z"
       id="path4" />
  </g>
  <g
     id="g5"
     style="fill:#06768d;fill-opacity:1">
    <path
       style="opacity:0.989;fill:#06768d;fill-opacity:1"
       fill="#00ffc8"
       d="M 608.5,670.5 C 635.06,672.596 656.226,684.263 672,705.5C 676.744,712.963 679.744,720.963 681,729.5C 624.752,761.707 568.585,794.04 512.5,826.5C 511.667,799.506 511.167,772.506 511,745.5C 510.543,740.173 509.376,735.006 507.5,730C 508.272,728.779 509.272,727.779 510.5,727C 543.393,708.392 576.059,689.559 608.5,670.5 Z"
       id="path5" />
  </g>
  <g
     id="g6"
     style="fill:#06768d;fill-opacity:1">
    <path
       style="opacity:0.995;fill:#06768d;fill-opacity:1"
       fill="#00ffc7"
       d="M 430.5,693.5 C 462.225,691.279 484.725,704.612 498,733.5C 501.252,741.172 502.918,749.172 503,757.5C 503.667,810.833 503.667,864.167 503,917.5C 501.71,942.255 490.543,961.088 469.5,974C 442.579,986.93 418.079,983.43 396,963.5C 386.493,952.151 380.493,939.151 378,924.5C 377.027,863.473 377.36,802.473 379,741.5C 387.315,716.019 404.482,700.019 430.5,693.5 Z"
       id="path6" />
  </g>
</svg>
